X:1
T:Drifting Away from God
T:Drifting Away from God
T:Francis Addison Simpkins
T:Francis Addison Simpkins, 1899
T:Public Domain Courtesy of the Cyber Hymnal™
C:Francis Addison Simpkins
Z:Public Domain
Z:Courtesy of the Cyber Hymnal™
%%score ( 1 2 ) ( 3 4 )
L:1/8
Q:1/4=98
M:6/8
K:F
V:1 treble 
V:2 treble 
V:3 bass 
V:4 bass 
V:1
 [Fc]>[FB][FA] [CG][CD][CE] | [CF]3 C2 z | [Fc]>[F=B][Fc] [E_B]2 [EB] | [FA]3- [FA]2 z | %4
w: 1.~Drift- ing a- way from the|Sav- ior,|Drift- ing to lands un-|known, *|
w: 2.~Drift- ing a- way from the|Sav- ior,|He who would bear your|load; *|
w: 3.~Drift- ing a- way from the|Sav- ior,|Fear- less- ly on you|go; *|
w: 4.~Drift- ing a- way from the|Sav- ior,|E- ven the an- gels|weep; *|
 [Fd]>[F^c][Fd] [F=c]2 F | [EB]>[EA][EB] [FA]3 | GGG [FG][FA][FG] | [Ec]3- [Ec]2 z || %8
w: Drift- ing a- way by|night and by day,|Drift- ing, yes, drift- ing a-|lone. *|
w: Drift- ing a- way by|night and by day,|Drift- ing, yes, drift- ing from|God. *|
w: Drift- ing a- way by|night and by day,|Drift- ing to re- gions of|woe. *|
w: Still you drift on with|mirth and with song,|Out on the fa- thom- less|deep. *|
"^Refrain" [Fc]>[FB][FA] [CG][CD][CE] | [CF]3 C2 z | D[DF][FB] [Fd][Ee][Ed] | [E^c]4 [E=c][Ec] | %12
w: ||||
w: Drift- ing a- way from the|Sav- ior,|Drift- ing a- way from His|love, While the|
w: ||||
w: ||||
 [Ff]>[Fe][Fd] [Fc][FB][FA] | ([DG]2 [^FA]) !fermata![GB]2 [GB]/[GB]/ | [FA]F[FB] [FA]2 [CG] | %15
w: |||
w: Sav- ior is ten- der- ly|call- * ing, You are|drift- ing a- way from|
w: |||
w: |||
 [CF]3- [CF]2 z |] %16
w: |
w: God. *|
w: |
w: |
V:2
 x6 | x3 C2 x | x6 | x6 | x5 F | x6 | GGG x3 | x6 || x6 | x3 C2 x | D x5 | x6 | x6 | x6 | x F x4 | %15
 x6 |] %16
V:3
 [F,A,]>[F,D][F,C] [C,B,][C,B,][C,B,] | [F,,F,A,]3 [F,,F,A,]2 z | %2
 [C,A,]>[C,^G,][C,A,] [C,=G,]2 [C,C] | [F,C]3- [F,C]2 z | B,>B,B, [A,C]2 [A,C] | %5
 [G,D]>[^F,C][G,C] [=F,C]3 | [E,C][E,C][E,C] [D,=B,][D,B,][D,G,] | [C,-G,]3 [C,B,]2 z || %8
 [F,A,]>[F,D][F,C] [C,B,][C,B,][C,B,] | [F,,F,A,]3 [F,,F,A,]2 z | %10
 [B,,F,][B,,B,][B,,D] [B,,B,][B,,G,][B,,G,] | [A,,A,]3 A,[G,B,][G,B,] | %12
 [F,A,]>[F,C][F,B,] [F,A,][F,D][F,C] | D3 !fermata![G,D]2 [B,,D]/[B,,D]/ | %14
 [C,C][C,A,][C,D] [C,C]2 [C,B,] | [F,,F,A,]3- [F,,F,A,]2 z |] %16
V:4
 x6 | x6 | x6 | x6 | B,>B,B, x3 | x6 | x6 | x6 || x6 | x6 | x6 | x3 A, x2 | x6 | (B,2 A,) x3 | x6 | %15
 x6 |] %16

